public/img/brands/verizon.svg

<?xml version="1.0" encoding="UTF-8"?>
<svg fill="none" viewBox="0 0 139 31" xmlns="http://www.w3.org/2000/svg">
<g clip-path="url(#a)" fill="#000">
<path d="m61.257 2.8428h-5.9818v5.6833h5.9818v-5.6833zm0 7.1484h-5.9818v20.15h5.9818v-20.151 0.00114zm-46.938-0.00574-4.0507 13.307-4.2424-13.284-6.0255 0.0034 7.099 20.127h6.4296l6.7362-20.153h-5.9474 0.0012zm65.23 4.9129v-4.906h-16.58v4.9072h9.5606l-9.5606 10.43v4.8118h17.265v-4.813h-9.7765l9.0922-10.429v-0.0012zm-32.646-1.7635v-3.1437h-5.8555v20.15h5.8544v-9.0554c0.1722-5.1896 4.5065-5.6489 4.5065-5.6489h1.9863v-5.4468h-2.1585c-1.8486 0-3.5995 2.1229-4.332 3.1436l-0.0012 0.0012zm-17.498-3.8348c-5.5812 0-10.106 4.8566-10.106 10.85 0 5.9933 4.5237 10.85 10.106 10.85 4.2252 0 8.3734-2.7533 9.8809-6.7052l-5.6121-0.031c-0.8692 1.4007-2.2894 2.3009-4.4204 2.1952-2.0965-0.1056-3.8658-2.0023-4.371-4.7143h14.516c0.0723-0.5189 0.1102-1.0517 0.1102-1.5936 0-5.9933-4.5226-10.85-10.104-10.85v-0.00115zm-4.3285 8.44c0.6774-2.294 2.2928-3.906 4.1792-3.906 1.8876 0 3.5019 1.6154 4.1793 3.906h-8.3585z"/>
<path d="m90.893 9.3c-5.9704 0-10.812 4.8567-10.812 10.85s4.8405 10.85 10.812 10.85c5.9703 0 10.811-4.8567 10.811-10.85s-4.8393-10.85-10.811-10.85zm0.0643 17.095c-2.4996 0-4.5283-2.7854-4.5283-6.2207 0-3.4364 2.0287-6.2207 4.5283-6.2207 2.5029 0 4.5294 2.7843 4.5294 6.2207 0 3.433-2.0276 6.2207-4.5294 6.2207zm30.978-9.4631c-0.028-6.4009-4.93-8.0772-8.555-7.2333-2.154 0.50169-3.711 2.0621-4.456 2.9588v-2.666h-5.789v20.15h5.789v-12.212c1.251-3.6913 3.912-3.9083 5.543-2.9014 1.438 0.8887 1.656 2.906 1.656 2.906v12.207h5.812v-13.211 0.0011zm-3e-3 -6.9428 4.702 10.161h2.564l9.23-20.15h-3.12l-7.479 16.189-2.692-6.2h-3.205z"/>
</g>
<defs>
<clipPath id="a">
<rect width="138.93" height="31" fill="#fff"/>
</clipPath>
</defs>
</svg>

<svg width="139" height="31" viewBox="0 0 139 31" fill="none" xmlns="http://www.w3.org/2000/svg">
<g clip-path="url(#clip0)">
<path d="M61.2571 2.84277H55.2753V8.52611H61.2571V2.84277ZM61.2571 9.99114H55.2753V30.1411H61.2571V9.99V9.99114ZM14.3186 9.9854L10.2679 23.2924L6.02548 10.0084L0 10.0118L7.099 30.1388H13.5286L20.2648 9.9854H14.3174H14.3186ZM79.5483 14.8983V9.99229H62.9679V14.8995H72.5285L62.9679 25.3293V30.1411H80.2326V25.3281H70.4561L79.5483 14.8995V14.8983ZM46.9018 13.1348V9.99114H41.0463V30.1411H46.9007V21.0857C47.0729 15.8961 51.4072 15.4368 51.4072 15.4368H53.3935V9.99H51.235C49.3864 9.99 47.6355 12.1129 46.903 13.1336L46.9018 13.1348ZM29.4041 9.29996C23.8229 9.29996 19.2981 14.1566 19.2981 20.15C19.2981 26.1433 23.8218 31 29.4041 31C33.6293 31 37.7775 28.2467 39.285 24.2948L33.6729 24.2638C32.8037 25.6645 31.3835 26.5647 29.2525 26.459C27.156 26.3534 25.3867 24.4567 24.8815 21.7447H39.3976C39.4699 21.2258 39.5078 20.693 39.5078 20.1511C39.5078 14.1578 34.9852 9.30111 29.4041 9.30111V9.29996ZM25.0756 17.74C25.753 15.446 27.3684 13.834 29.2548 13.834C31.1424 13.834 32.7567 15.4494 33.4341 17.74H25.0756Z" fill="black"/>
<path d="M90.8932 9.3C84.9228 9.3 80.0811 14.1567 80.0811 20.15C80.0811 26.1433 84.9216 31 90.8932 31C96.8635 31 101.704 26.1433 101.704 20.15C101.704 14.1567 96.8647 9.3 90.8932 9.3V9.3ZM90.9575 26.3948C88.4579 26.3948 86.4292 23.6094 86.4292 20.1741C86.4292 16.7377 88.4579 13.9534 90.9575 13.9534C93.4604 13.9534 95.4869 16.7377 95.4869 20.1741C95.4869 23.6071 93.4593 26.3948 90.9575 26.3948ZM121.936 16.9317C121.908 10.5308 117.006 8.85452 113.381 9.69841C111.227 10.2001 109.67 11.7605 108.925 12.6572V9.99119H103.136V30.1412H108.925V17.9295C110.176 14.2382 112.837 14.0212 114.468 15.0281C115.906 15.9168 116.124 17.9341 116.124 17.9341V30.1412H121.936V16.9306V16.9317ZM121.933 9.98889L126.635 20.15H129.199L138.429 0H135.309L127.83 16.1889L125.138 9.98889H121.933Z" fill="black"/>
</g>
<defs>
<clipPath id="clip0">
<rect width="138.926" height="31" fill="white"/>
</clipPath>
</defs>
</svg>
